build/img/pdf.svg

<svg width="24" height="25" viewBox="0 0 24 25" fill="none" xmlns="http://www.w3.org/2000/svg">
<g clip-path="url(#clip0)">
<path d="M4.46613 0.500244C3.36156 0.500244 2.46613 1.39568 2.46613 2.50024V5.50024C2.46613 6.05252 2.91384 6.50024 3.46613 6.50024C4.01841 6.50024 4.46613 6.05252 4.46613 5.50024V2.50024H18.4661V5.50024C18.4661 6.05252 18.9138 6.50024 19.4661 6.50024C20.0184 6.50024 20.4661 6.05252 20.4661 5.50024V2.50024C20.4661 1.39568 19.5707 0.500244 18.4661 0.500244H4.46613Z" fill="#2858FF"/>
<path d="M4.46613 19.5002C4.46613 18.9479 4.01841 18.5002 3.46613 18.5002C2.91384 18.5002 2.46613 18.9479 2.46613 19.5002V22.5002C2.46613 23.6048 3.36156 24.5002 4.46613 24.5002H18.4661C19.5707 24.5002 20.4661 23.6048 20.4661 22.5002V19.5002C20.4661 18.9479 20.0184 18.5002 19.4661 18.5002C18.9138 18.5002 18.4661 18.9479 18.4661 19.5002V22.5002H4.46613V19.5002Z" fill="#2858FF"/>
<path fill-rule="evenodd" clip-rule="evenodd" d="M1.858 16.5662C1.594 16.5662 1.385 16.4892 1.231 16.3352C1.077 16.1812 1 15.9722 1 15.7082V9.54824C1 9.29157 1.06967 9.09357 1.209 8.95423C1.34833 8.8149 1.54633 8.74524 1.803 8.74524H4.564C5.40733 8.74524 6.06367 8.9579 6.533 9.38324C7.00233 9.80857 7.237 10.4026 7.237 11.1652C7.237 11.9279 7.00233 12.5219 6.533 12.9472C6.06367 13.3725 5.40733 13.5852 4.564 13.5852H2.716V15.7082C2.716 15.9722 2.639 16.1812 2.485 16.3352C2.331 16.4892 2.122 16.5662 1.858 16.5662ZM4.344 12.2872C5.202 12.2872 5.631 11.9169 5.631 11.1762C5.631 10.4282 5.202 10.0542 4.344 10.0542H2.716V12.2872H4.344Z" fill="#2858FF"/>
<path fill-rule="evenodd" clip-rule="evenodd" d="M9.37069 16.5002C9.11402 16.5002 8.91602 16.4305 8.77669 16.2912C8.63735 16.1519 8.56769 15.9539 8.56769 15.6972V9.54824C8.56769 9.29157 8.63735 9.09357 8.77669 8.95423C8.91602 8.8149 9.11402 8.74524 9.37069 8.74524H11.5817C12.425 8.74524 13.151 8.89924 13.7597 9.20724C14.3683 9.51524 14.834 9.9589 15.1567 10.5382C15.4793 11.1175 15.6407 11.8105 15.6407 12.6172C15.6407 13.4239 15.4793 14.1205 15.1567 14.7072C14.8413 15.2865 14.3793 15.7302 13.7707 16.0382C13.162 16.3462 12.4323 16.5002 11.5817 16.5002H9.37069ZM11.4607 15.1142C13.1107 15.1142 13.9357 14.2819 13.9357 12.6172C13.9357 10.9599 13.1107 10.1312 11.4607 10.1312H10.2837V15.1142H11.4607Z" fill="#2858FF"/>
<path d="M17.4083 16.3352C17.5696 16.4892 17.7786 16.5662 18.0353 16.5662C18.292 16.5662 18.4936 16.4892 18.6403 16.3352C18.7943 16.1812 18.8713 15.9722 18.8713 15.7082V13.2332H21.5443C21.823 13.2332 22.0283 13.1782 22.1603 13.0682C22.2923 12.9582 22.3583 12.7895 22.3583 12.5622C22.3583 12.3275 22.2923 12.1552 22.1603 12.0452C22.0283 11.9352 21.823 11.8802 21.5443 11.8802H18.8713V10.0982H21.7643C22.043 10.0982 22.2483 10.0432 22.3803 9.93324C22.5123 9.82324 22.5783 9.65457 22.5783 9.42724C22.5783 9.19257 22.5123 9.02024 22.3803 8.91024C22.2483 8.80024 22.043 8.74524 21.7643 8.74524H17.9803C17.7236 8.74524 17.5256 8.8149 17.3863 8.95423C17.247 9.09357 17.1773 9.29157 17.1773 9.54824V15.7082C17.1773 15.9649 17.2543 16.1739 17.4083 16.3352Z" fill="#2858FF"/>
</g>
<defs>
<clipPath id="clip0">
<rect width="22" height="24" fill="white" transform="translate(1 0.500244)"/>
</clipPath>
</defs>
</svg>

<svg width="24" height="25" viewBox="0 0 24 25" fill="none" xmlns="http://www.w3.org/2000/svg"><g clip-path="url(#clip0)" fill="#2858FF"><path d="M4.466.5a2 2 0 00-2 2v3a1 1 0 102 0v-3h14v3a1 1 0 102 0v-3a2 2 0 00-2-2h-14zm0 19a1 1 0 10-2 0v3a2 2 0 002 2h14a2 2 0 002-2v-3a1 1 0 10-2 0v3h-14v-3z"/><path fill-rule="evenodd" clip-rule="evenodd" d="M1.858 16.566c-.264 0-.473-.077-.627-.23-.154-.155-.231-.364-.231-.628v-6.16c0-.256.07-.454.209-.594.14-.14.337-.209.594-.209h2.761c.843 0 1.5.213 1.969.638.47.426.704 1.02.704 1.782 0 .763-.235 1.357-.704 1.782-.47.426-1.126.638-1.969.638H2.716v2.123c0 .264-.077.473-.231.627-.154.154-.363.231-.627.231zm2.486-4.279c.858 0 1.287-.37 1.287-1.11 0-.749-.429-1.123-1.287-1.123H2.716v2.233h1.628zM9.37 16.5c-.256 0-.454-.07-.593-.209-.14-.14-.21-.337-.21-.594V9.548c0-.256.07-.454.21-.594.139-.14.337-.209.594-.209h2.21c.844 0 1.57.154 2.179.462a3.226 3.226 0 011.397 1.331c.322.58.484 1.272.484 2.08 0 .806-.162 1.502-.484 2.09a3.161 3.161 0 01-1.386 1.33c-.609.308-1.339.462-2.19.462h-2.21zm2.09-1.386c1.65 0 2.476-.832 2.476-2.497 0-1.657-.825-2.486-2.475-2.486h-1.177v4.983h1.177z"/><path d="M17.408 16.335a.87.87 0 00.627.231c.257 0 .459-.077.605-.23.154-.155.231-.364.231-.628v-2.475h2.673c.279 0 .484-.055.616-.165.132-.11.198-.278.198-.506 0-.234-.066-.407-.198-.517-.132-.11-.337-.165-.616-.165h-2.673v-1.782h2.893c.279 0 .484-.055.616-.165.132-.11.198-.278.198-.506 0-.234-.066-.407-.198-.517-.132-.11-.337-.165-.616-.165H17.98c-.256 0-.454.07-.594.21-.139.139-.209.337-.209.593v6.16a.87.87 0 00.231.627z"/></g><defs><clipPath id="clip0"><path fill="#fff" transform="translate(1 .5)" d="M0 0h22v24H0z"/></clipPath></defs></svg>
